build/svg/cmd/sc_size.svg

<svg xmlns="http://www.w3.org/2000/svg" viewBox="0 0 16 11"><rect ry="0" y="4" x="4" height="5" width="11" opacity=".6" fill-rule="evenodd" stroke="#000" stroke-width="2" stroke-linejoin="round"/><rect width="11" height="5" x="4" y="4" ry="0" fill="#fff" fill-rule="evenodd"/><path d="M4 1v3h1V3h9v1h1V1h-1v1H5V1zM1 4v1h1v3H1v1h3V8H3V5h1V4z" opacity=".6" stroke="#000" stroke-width="2" stroke-linejoin="round"/><path d="M4 1v3h1V3h9v1h1V1h-1v1H5V1zM1 4v1h1v3H1v1h3V8H3V5h1V4z" fill="#aee3f8"/></svg>

<?xml version="1.0" encoding="UTF-8" standalone="no"?>
<svg
   xmlns:dc="http://purl.org/dc/elements/1.1/"
   xmlns:cc="http://creativecommons.org/ns#"
   xmlns:rdf="http://www.w3.org/1999/02/22-rdf-syntax-ns#"
   xmlns:svg="http://www.w3.org/2000/svg"
   xmlns="http://www.w3.org/2000/svg"
   xmlns:sodipodi="http://sodipodi.sourceforge.net/DTD/sodipodi-0.dtd"
   xmlns:inkscape="http://www.inkscape.org/namespaces/inkscape"
   viewBox="0 0 16 11"
   version="1.1"
   id="svg6"
   sodipodi:docname="sc_size.svg"
   inkscape:export-filename="/home/jupiter007/Libreoffice yaru theme fullcolor/build/cmd/sc_size.png"
   inkscape:export-xdpi="96"
   inkscape:export-ydpi="96"
   inkscape:version="0.92.5 (2060ec1f9f, 2020-04-08)">
  <metadata
     id="metadata12">
    <rdf:RDF>
      <cc:Work
         rdf:about="">
        <dc:format>image/svg+xml</dc:format>
        <dc:type
           rdf:resource="http://purl.org/dc/dcmitype/StillImage" />
      </cc:Work>
    </rdf:RDF>
  </metadata>
  <defs
     id="defs10" />
  <sodipodi:namedview
     pagecolor="#ffffff"
     bordercolor="#666666"
     borderopacity="1"
     objecttolerance="10"
     gridtolerance="10"
     guidetolerance="10"
     inkscape:pageopacity="0"
     inkscape:pageshadow="2"
     inkscape:window-width="1920"
     inkscape:window-height="1011"
     id="namedview8"
     showgrid="true"
     inkscape:zoom="21.454545"
     inkscape:cx="2.8029661"
     inkscape:cy="5.5"
     inkscape:window-x="0"
     inkscape:window-y="32"
     inkscape:window-maximized="1"
     inkscape:current-layer="svg6">
    <inkscape:grid
       type="xygrid"
       id="grid834" />
  </sodipodi:namedview>
  <rect
     ry="0"
     y="4"
     x="4"
     height="5"
     width="11"
     id="rect834"
     style="opacity:0.6;fill:#000000;fill-opacity:1;fill-rule:evenodd;stroke:#000000;stroke-width:2;stroke-linecap:butt;stroke-linejoin:round;stroke-miterlimit:4;stroke-dasharray:none;stroke-opacity:1" />
  <rect
     style="opacity:1;fill:#ffffff;fill-opacity:1;fill-rule:evenodd;stroke:none;stroke-width:2;stroke-linecap:butt;stroke-linejoin:round;stroke-miterlimit:4;stroke-dasharray:none;stroke-opacity:1"
     id="rect832"
     width="11"
     height="5"
     x="4"
     y="4"
     ry="0" />
  <path
     sodipodi:nodetypes="cccccccccccccccccccccccccccc"
     style="opacity:0.6;fill:#000000;fill-opacity:1;stroke:#000000;stroke-width:2;stroke-linejoin:round;stroke-miterlimit:4;stroke-dasharray:none"
     inkscape:connector-curvature="0"
     id="path832"
     d="M 4,1 V 2 3 4 H 5 V 3 h 9 v 1 h 1 V 1 H 14 V 2 H 5 V 1 Z M 1,4 V 5 H 2 V 8 H 1 V 9 H 4 V 8 H 3 V 5 H 4 V 4 Z" />
  <path
     d="M 4,1 V 2 3 4 H 5 V 3 h 9 v 1 h 1 V 1 H 14 V 2 H 5 V 1 Z M 1,4 V 5 H 2 V 8 H 1 V 9 H 4 V 8 H 3 V 5 H 4 V 4 Z"
     id="path2"
     inkscape:connector-curvature="0"
     style="fill:#aee3f8;fill-opacity:1"
     sodipodi:nodetypes="cccccccccccccccccccccccccccc" />
</svg>
